src/categories-icons-sprite/categories/svg-cat-child-gloves.svg

<svg width="38" height="32" viewBox="0 0 38 32" fill="none" xmlns="http://www.w3.org/2000/svg">
<path class="p-E8F4FC" d="M32.9944 6.9152C29.6531 5.94869 26.161 7.87364 25.1946 11.215L24.5537 14.3715C23.8843 13.5237 22.6814 12.3178 21.7043 12.8563C20.6165 13.456 20.2207 14.8242 20.8205 15.912L22.798 19.4995L20.1943 28.5002L32.2939 32.0003L37.2941 14.7151C38.2606 11.3739 36.3356 7.88178 32.9944 6.9152Z" fill="#B9DFFC"/>
<path class="p-E59278" d="M22.7965 19.4995L20.819 15.912C20.2192 14.8242 20.615 13.456 21.7028 12.8563C22.6798 12.3178 23.8827 13.5237 24.5522 14.3714L25.1931 11.215C26.1595 7.87364 29.6517 5.94869 32.9929 6.9152C36.3342 7.8817 38.2592 11.3739 37.2927 14.715L34.3174 24.9998L22.2178 21.4998L22.7965 19.4995Z" fill="#58ADE5"/>
<path class="p-DF6246" d="M32.9933 6.91515C36.3346 7.88166 38.2596 11.3739 37.2931 14.715L34.3178 24.9997L27.9678 23.1629L32.6166 6.81982C32.7423 6.84798 32.8678 6.87885 32.9933 6.91515Z" fill="#4D98CB"/>
<path d="M32.9938 6.91465C32.913 6.89126 32.832 6.87109 32.751 6.85107C32.8319 6.87065 32.9128 6.89133 32.9938 6.91465Z" fill="#D1E5F5"/>
<path class="p-D1E5F5" d="M34.3186 24.9993L37.2938 14.7146L32.2935 31.9998L25.9746 30.1718L27.9686 23.1624L34.3186 24.9993Z" fill="#A1D1FD"/>
<path class="p-D1E5F5" d="M4.54942 0.249669C7.89074 -0.716839 11.3828 1.20811 12.3492 4.5495L12.9901 7.70592C13.6595 6.85813 14.8625 5.65225 15.8395 6.19075C16.9273 6.79048 17.3231 8.15867 16.7234 9.24646L14.7458 12.8339L17.3495 21.8347L5.24983 25.3348L0.249664 8.04956C-0.716844 4.7084 1.20818 1.21632 4.54942 0.249669Z" fill="#A1D1FD"/>
<path class="p-DF6246" d="M14.7458 12.8339L16.7233 9.24646C17.323 8.15867 16.9273 6.79048 15.8394 6.19075C14.8624 5.65232 13.6594 6.85813 12.99 7.70592L12.3492 4.5495C11.3827 1.20811 7.89052 -0.716839 4.54935 0.249669C1.20818 1.21632 -0.716844 4.70839 0.249665 8.04956L3.22479 18.3342L15.3244 14.8342L14.7458 12.8339Z" fill="#4D98CB"/>
<path class="p-E59278" d="M4.54942 0.249547C1.20818 1.2162 -0.716844 4.70827 0.249664 8.04944L3.22479 18.3341L9.57481 16.4972L4.92602 0.154297C4.80034 0.182454 4.67481 0.213324 4.54942 0.249547Z" fill="#58ADE5"/>
<path d="M4.5498 0.249853C4.63061 0.226462 4.71164 0.206297 4.79266 0.186279C4.71164 0.205857 4.63076 0.226535 4.5498 0.249853Z" fill="#B9DFFC"/>
<path class="p-E8F4FC" d="M3.2252 18.3345L0.25 8.0498L5.25017 25.3351L11.5692 23.5071L9.57522 16.4976L3.2252 18.3345Z" fill="#B9DFFC"/>
</svg>

<svg width="38" height="32" fill="none" xmlns="http://www.w3.org/2000/svg"><path class="p-E8F4FC" d="M32.994 6.915a6.298 6.298 0 00-7.8 4.3l-.64 3.156c-.67-.847-1.873-2.053-2.85-1.515a2.25 2.25 0 00-.884 3.056l1.978 3.588-2.604 9 12.1 3.5 5-17.285a6.298 6.298 0 00-4.3-7.8z" fill="#B9DFFC"/><path class="p-E59278" d="M22.797 19.5l-1.978-3.588a2.25 2.25 0 01.884-3.056c.977-.538 2.18.668 2.85 1.515l.64-3.156a6.298 6.298 0 1112.1 3.5L34.317 25l-12.1-3.5.58-2z" fill="#58ADE5"/><path class="p-DF6246" d="M32.993 6.915a6.298 6.298 0 014.3 7.8L34.318 25l-6.35-1.837L32.617 6.82c.125.028.25.059.376.095z" fill="#4D98CB"/><path d="M32.994 6.915z" fill="#D1E5F5"/><path class="p-D1E5F5" d="M34.319 25l2.975-10.285-5 17.285-6.32-1.828 1.995-7.01L34.319 25zM4.55.25a6.298 6.298 0 017.8 4.3l.64 3.156c.67-.848 1.873-2.054 2.85-1.515a2.25 2.25 0 01.883 3.055l-1.977 3.588 2.603 9-12.1 3.5-5-17.284a6.298 6.298 0 014.3-7.8z" fill="#A1D1FD"/><path class="p-DF6246" d="M14.746 12.834l1.977-3.588a2.25 2.25 0 00-.884-3.055c-.977-.539-2.18.667-2.849 1.515l-.64-3.157a6.298 6.298 0 10-12.1 3.5l2.975 10.285 12.1-3.5-.58-2z" fill="#4D98CB"/><path class="p-E59278" d="M4.55.25a6.298 6.298 0 00-4.3 7.8l2.975 10.284 6.35-1.837L4.926.154a6.376 6.376 0 00-.377.096z" fill="#58ADE5"/><path d="M4.55.25z" fill="#B9DFFC"/><path class="p-E8F4FC" d="M3.225 18.334L.25 8.05l5 17.285 6.32-1.828-1.995-7.01-6.35 1.837z" fill="#B9DFFC"/></svg>
